X:94
T:B094-  The crossed couple, or Tantara rara tantivy
Q:1/4=120
L:1/4
M:6/4
K:C
c|cdccBA|BAGc2E|FGAGAB|A(c2c2):||G|c2dede|fede2d|\
ccdede|fede2d|ceeBdd|BAGc2E|FGAGAB|A(c2c2)|]

